X:1
T:Sortez, regretz
T:Philippe de Monte
T:Sortez, regretz
C:Philippe de Monte
%%score [ 1 2 3 4 ]
L:1/8
Q:1/4=120
M:4/2
K:F
V:1 treble nm="Soprano" snm="S"
V:2 treble-8 nm="Alto" snm="A"
V:3 treble-8 nm="Tenor" snm="T"
V:4 bass nm="Bass" snm="B"
V:1
 A16 | B8 B8 | A12 A4 | c4 B4 B6 AG | A2 D2 G6 ^F2 F2 EF | G8 z4 G4 | F4 D4 E6 F2 | G6 FE D8- | %8
w: Sor-|tez re-|gretz, sor-|tez re- gretz, _ _|_ sor- tez _ re- * *|gretz, sor-|tez re- gretz _|_ _ _ _|
 D8 z4 F4 | G4 A4 B4 B4 | A6 B2 c2 B2 B2 AG | A8 z4 D4 | E4 E4 D4 G4 | F6 E2 D4 C4 | D8 A8 | %15
w: * et|al- le- gez mon|coeur, _ _ _ _ _ _|_ puis-|que d'ay- mer Ma-|da- me se re-|pend, puis-|
 B4 B4 A4 d4 | c6 B2 A4 G4 | A8 z4 d4 | c4 B4 A4 G4 | _e4 e4 d2 c2 B2 A2 | G2 F2 B8 A4 | B8 z4 B4 | %22
w: que d'ay- mer Ma-|da- me se re-|pend. Mais|si pri- èr' hu-|mai- n'au ciel _ _ _|_ _ _ s'es-|tend, mort|
 B8 c8 | F8 z4 F4 | B8 G8 | F4 A12 | B12 B4 | A4 A4 B6 A2 | G4 F4 G4 A4- | A4 c8 =B4 | %30
w: ou mer-|cy, mort|ou mer-|cy, mort|ou mer-|cy soit fin à|ma dou- leur, mort|_ ou mer-|
 c4 G4 A6 G2 | F4 E4 D4 A4 | B12 B4 | A4 G4 d4 D4 | F6 F2 G4 A4 | D4 A4 G4 G4 | G4 G4 ^F4 d4 | %37
w: cy soit fin à|ma dou- leur, mort|ou mer-|cy soit fin soit|fin à ma dou-|leur, soit fin à|ma dou- leur, soit|
 B6 A2 G4 ^F4 | G16 |] %39
w: fin à ma dou-|leur.|
V:2
 z8 z4 d4- | d4 G4 G4 g4- | g4 ^f2 e2 f8 | g16 | ^f4 g4 a4 A4 | c4 B4 B4 A2 G2 | A4 F4 G4 A4 | %7
w: Sor-|* tez re- gretz,|_ _ _ _|sor-|tez re- gretz, sor-|tez re- gretz _ _|_ et al- le-|
 B12 B4 | A8 z8 | z4 c4 d4 e4 | f8 c4 g4- | g2 ^f2 f2 ef g8 | z4 G8 d4- | d4 c4 B4 F4 | %14
w: gez mon|coeur,|et al- le-|gez mon coeur,|_ _ _ _ _ _|puis- que|_ d'ay- mer Ma-|
 f6 e2 d4 c4 | d4 f4 f8- | f4 f4 e4 d4 | e4 e4 f4 b4 | a4 f4 f4 d4 | g8 f8 | d6 e2 f8- | f8 d8 | %22
w: da- me se re-|pend, Ma- da-|* me se re-|pend. Mais si pri-|èr' hu- mai- n'au|ciel s'es-|tend, _ _|_ mort|
 _e12 e4 | d4 B8 d4- | d2 c2 f8 e4 | f12 f4 | f8 g8 | c4 f4 f6 e2 | d4 c4 d4 f4 | a8 g8 | %30
w: ou mer-|cy, mort ou|_ _ mer- *|cy, mort|ou mer-|cy soit fin à|ma dou- leur, mort|ou mer-|
 e4 e4 f4 c4 | d4 G2 g4 fe f4 | d12 e4 | f4 e4 f6 e2 | d12 d4 | B4 f4 _e2 d2 d4- | d4 c4 d4 a4 | %37
w: cy soit fin à|ma _ dou- * * *|leur, soit|fin à ma _|_ dou-|leur, à ma _ dou-|* * leur, soit|
 g6 f2 _e4 d4 | =B16 |] %39
w: fin à ma dou-|leur.|
V:3
 z16 | z16 | d16 | _e12 e4 | d8 d8 | G4 G8 c4- | c2 B2 B2 AB c8 | d8 G4 G4 | D4 D4 B6 A2 | %9
w: ||Sor-|tez re-|gretz, sor-|tez re- gretz,|_ _ _ _ _ _|sor- tez re-|gretz et al- le-|
 G4 F4 B4 B4 | c4 d4 _e4 e4 | d8 z4 G4- | G4 c8 B4 | A4 F4 G4 A4 | B2 c2 d2 e2 f8- | f4 d4 c4 B4 | %16
w: gez mon coeur, et|al- le- gez mon|coeur, puis-|* que d'ay-|mer puis- que d'ay-|mer _ _ _ _|_ Ma- da- me|
 A6 B2 c2 A2 d4- | d4 ^c4 d8 | z4 d4 c4 B4 | c4 c4 A4 d4 | B8 c8 | d8 z4 F4 | G2 A2 B8 A4 | %23
w: se _ _ _ _|_ re- pend.|Mais si pri-|èr' hu- mai- n'au|ciel s'es-|tend, mort|ou _ _ mer-|
 B8 z4 B4 | B8 c8 | F8 z4 c4 | d2 e2 f8 e4 | f4 c4 d6 c2 | B4 A4 G4 c4 | f8 d8 | c8 z4 F4 | %31
w: cy, mort|ou mer-|cy, mort|ou _ _ mer-|cy soit fin à|ma dou- leur, mort|ou mer-|cy soit|
 A4 c4 B4 A4 | G4 B4 B8 | c8 F4 F4 | B6 A2 G4 F4 | G4 c8 B4- | B4 G4 A4 f4 | _e6 c2 c4 A4 | d16 |] %39
w: fin à ma dou-|leur, mort ou|mer- cy soit|fin à ma dou-|leur, mort ou|_ mer- cy soit|fin à ma dou-|leur.|
V:4
 z16 | z16 | z16 | z16 | D,16 | _E,12 E,4 | D,8 C,8 | G,,4 G,,8 G,4- | G,2 F,2 F,2 E,F, G,4 D,4 | %9
w: ||||Sor-|tez re-|gretz, sor-|tez re- gretz|_ _ _ _ _ _ et|
 B,4 A,4 G,4 G,4 | F,8 z8 | z8 G,8 | C,4 C,4 G,8 | z16 | z8 z4 F,4 | B,4 B,4 F,4 B,,4 | %16
w: al- le- gez mon|coeur,|puis-|que d'ay- mer||puis-|que d'ay- mer Ma-|
 F,6 G,2 A,4 B,4 | A,8 z4 G,4 | A,4 B,4 F,4 G,4 | C,8 D,4 B,4- | B,4 G,4 F,8 | B,,16 | _E,8 C,8 | %23
w: da- me se re-|pend. Mais|si pri- èr' hu-|mai- n'au ciel|_ s'es- tend,|mort|ou mer-|
 B,,8 z8 | z16 | z8 F,8 | B,8 G,8 | F,8 z8 | z8 z4 F,4 | F,8 G,8 | C,4 C,4 F,6 E,2 | %31
w: cy,||mort|ou mer-|cy,|mort|ou mer-|cy soit fin à|
 D,4 C,4 D,4 D,4 | B,8 G,8 | F,4 C,4 B,,8- | B,,4 B,,4 B,4 A,4 | G,4 F,4 G,8 | _E,8 D,4 D,4 | %37
w: ma dou- leur, mort|ou mer-|cy, mort ou|_ mer- cy soit|fin à ma|dou- leur, soit|
 _E,6 F,2 C,4 D,4 | G,,16 |] %39
w: fin à ma dou-|leur.|

